X:653
%%etbk:tnset id:427,pos:1,rep:3x,ant:
%%etbk:wsite https://thesession.org/tunes/170
%%etbk:video src:ytube,cde:fEGxWWctBtw,desc:
%%etbk:pldat 2016-09-16T15:45,2016-09-10T15:33,2016-09-07T17:42,2016-08-05T16:52,2016-07-21T19:40,2016-07-12T17:12,2016-07-07T16:28,2016-06-18T16:52,2016-06-16T19:28,2016-05-30T19:23,2016-05-29T14:51,2016-05-26T19:05,2016-05-25T15:53,2016-05-23T19:09,2016-05-16T15:59,2016-05-15T15:59,2016-05-14T17:49,2016-05-10T19:35,2016-04-21T19:03,2016-04-20T16:04,2016-04-12T17:00,2016-04-11T18:24,2016-04-07T17:21,2016-04-04T19:14,2016-04-02T14:53,2016-03-30T16:58,2016-03-25T15:52,2016-03-23T17:24,2016-03-22T16:07,2016-03-21T18:27,2016-03-20T14:55,2016-03-17T18:35,2016-03-16T16:56,2016-02-10T17:13,2016-02-08T19:08,2016-02-07T15:10,2016-01-27T17:23,2016-01-20T17:46,2016-01-18T18:46,2016-01-17T14:35,2016-01-13T17:34,2015-12-15T15:29,2015-07-18T16:04,2015-07-11T17:20,2015-06-10T18:49,2015-06-05T16:32,2015-06-03T18:48,2015-06-01T18:11,2015-05-31T16:27,2015-05-20T18:42,2015-05-19T18:01,2015-05-18T18:44,2015-04-08T16:13,2015-03-29T13:56
T: The Laird Of Drumblair
Z: Piano Box Version by Martin Fleischmann
H: Created 2015-03-29 /  Last Modified 2015-05-17
R: strathspey
M: 4/4
L: 1/8
K: Amaj
E>G|:"A"!2!A2!4!c>A E>A!4!c<!1!A|!5!a2g>a !3!f<ae>!1!c|"D"!1!(3def (3efg (3ae!1!d !3!(3cBA|"E"!2!(3Bcd (3cB!1!A !3!(3GFE !4!(3dcB|
"A"!1!A2!4!c>A E>Ac<A|a2g>a f<ae>c|"D"(3def (3efg (3aed (3cBA|1 "E"(3GFE (3dcB "A"!1!A2 !1!(3EFG:|2 "E"(3GFE (3dcB "A"A2 (3efg|
|:"A"!5!a2!3!e>a !2!c<a!1!A>B|(3cBA (3cBA a>ec<!1!A|"bm"!1!B<b!3!f>b !2!d<bB>c| (3dcB (3dcB b>df<!5!b|
"A"!5!a2e>a c<aA>B|(3cBA (3cBA a>ec<!1!A|"D"!1!(3def (3efg (3aed (3cBA|1 "E"(3GFE (3dcB "A"A2 (3efg:|2 "E"(3GFE (3dcB "A"A2||


